X: 19831
T: Jerry O'Sullivan's
R: reel
M: 4/4
K: Gmajor
|:G2GB AGAB|GEDE A3B|G2GB AGAB|G/F/E DE G3z:|
|:degB AGAB|degd e3d|degB AGAB|G/F/E DE G4:|
G2GB AGAB|GEDE A3B|GFGB AGAB|G/F/E DE GcBA|
G2GB AGAB|GEDE A3B|G2GB AGAB|G/F/E DE G3d|
degB AGAB|degd e3d|degB AGAB|G/F/E DE G3d|
degB AGAB|g2fd e3d/B/|d3B A2 G/A/B|cBG2G4|

